images/header/logo.svg

<svg width="147" height="38" viewBox="0 0 147 38" fill="none" xmlns="http://www.w3.org/2000/svg">
<path d="M10.003 22.9465C10.003 27.306 13.5342 30.84 17.8902 30.84L14.8918 36.5163C14.6644 36.9468 14.2177 37.2161 13.7312 37.2161H1.31279C0.587756 37.2161 0 36.6278 0 35.9022V28.0659C0 27.6764 0.172695 27.307 0.471467 27.0574L10.003 19.0938V22.9465ZM34.3812 26.0798C34.8778 26.4958 35.1648 27.1107 35.1648 27.7589V28.6503C35.1648 29.8596 34.1852 30.84 32.9768 30.84H17.8902L24.692 17.963L34.3812 26.0798ZM18.0329 12.3848L10.003 19.0938V7.53356C10.003 6.79006 10.8702 6.38469 11.4399 6.86191L18.0329 12.3848ZM24.692 17.963L18.0329 12.3848L32.6678 0.157808C33.2202 -0.303747 34.0051 0.332398 33.6687 0.969122L24.692 17.963Z" fill="#16183B"/>
<path d="M10.003 22.9465C10.003 27.306 13.5342 30.84 17.8902 30.84L14.8918 36.5163C14.6644 36.9468 14.2177 37.2161 13.7312 37.2161H1.31279C0.587756 37.2161 0 36.6278 0 35.9022V28.0659C0 27.6764 0.172695 27.307 0.471467 27.0574L10.003 19.0938V22.9465ZM34.3812 26.0798C34.8778 26.4958 35.1648 27.1107 35.1648 27.7589V28.6503C35.1648 29.8596 34.1852 30.84 32.9768 30.84H17.8902L24.692 17.963L34.3812 26.0798ZM18.0329 12.3848L10.003 19.0938V7.53356C10.003 6.79006 10.8702 6.38469 11.4399 6.86191L18.0329 12.3848ZM24.692 17.963L18.0329 12.3848L32.6678 0.157808C33.2202 -0.303747 34.0051 0.332398 33.6687 0.969122L24.692 17.963Z" fill="#16183B"/>
<path d="M49.3434 23.7597C49.3434 24.3335 49.4391 24.8263 49.6304 25.2401C49.8218 25.6521 50.1144 25.9719 50.5084 26.1957C50.9042 26.4196 51.4107 26.5325 52.0279 26.5325C52.0542 26.5325 53.9564 26.5325 53.9827 26.5325C54.5792 26.5231 55.0651 26.4158 55.444 26.207C55.8399 25.9907 56.1288 25.6728 56.3126 25.2514C56.4964 24.832 56.5884 24.3353 56.5884 23.7616V15.5695C56.5884 15.387 56.7366 15.2384 56.9185 15.2384H61.3533C61.5352 15.2384 61.6834 15.387 61.6834 15.5695V24.0532C61.6834 25.5223 61.3608 26.8033 60.7155 27.8944C60.0701 28.9854 59.1659 29.8357 58.001 30.4451C56.8585 31.0414 55.5247 31.3462 53.9958 31.3575C53.9658 31.3575 52.0579 31.3575 52.0279 31.3575C50.4746 31.3575 49.1164 31.0527 47.9496 30.4451C46.7846 29.8357 45.8767 28.9873 45.2238 27.8944C44.5748 26.8015 44.2483 25.5223 44.2483 24.0532V15.5695C44.2483 15.387 44.3965 15.2384 44.5785 15.2384H49.0133C49.1952 15.2384 49.3434 15.387 49.3434 15.5695V23.7597Z" fill="#16183B"/>
<path d="M63.559 30.6483V15.5695C63.559 15.387 63.7072 15.2384 63.8892 15.2384H69.9485C70.0629 15.2384 70.1699 15.2986 70.2299 15.3964L75.2875 23.7353C75.4601 24.0212 75.899 23.897 75.899 23.5641V15.5695C75.899 15.387 76.0472 15.2384 76.2292 15.2384H80.5064C80.6883 15.2384 80.8365 15.387 80.8365 15.5695V30.6483C80.8365 30.8308 80.6883 30.9794 80.5064 30.9794H74.644C74.5296 30.9794 74.4227 30.9192 74.3626 30.8195L69.1081 22.1458C68.9355 21.8598 68.4965 21.9821 68.4965 22.3169V30.6464C68.4965 30.8289 68.3483 30.9775 68.1664 30.9775H63.8892C63.7072 30.9775 63.559 30.8289 63.559 30.6464V30.6483Z" fill="#16183B"/>
<path d="M83.0182 15.2384H87.453C87.6349 15.2384 87.7831 15.387 87.7831 15.5695V30.6483C87.7831 30.8308 87.6349 30.9794 87.453 30.9794H83.0182C82.8363 30.9794 82.688 30.8308 82.688 30.6483V15.5695C82.688 15.387 82.8363 15.2384 83.0182 15.2384Z" fill="#16183B"/>
<path d="M117.119 15.2384C118.462 15.2384 119.61 15.4732 120.565 15.9415C121.52 16.4099 122.246 17.0743 122.747 17.9357C123.248 18.7953 123.498 19.8074 123.498 20.9679C123.498 22.1285 123.248 23.1405 122.747 24.0002C122.246 24.8598 121.52 25.5259 120.565 25.9943C119.61 26.4627 118.462 26.6984 117.119 26.6984H112.039C111.857 26.6986 111.709 26.8471 111.709 27.0295V30.6486C111.709 30.8309 111.561 30.9797 111.379 30.9797H106.944C106.762 30.9796 106.614 30.8309 106.614 30.6486V15.5694C106.614 15.387 106.762 15.2384 106.944 15.2384H117.119ZM131.837 15.2384C131.977 15.2384 132.103 15.3285 132.148 15.4601L135.293 24.591C135.396 24.8882 135.814 24.8882 135.917 24.591L139.045 15.462C139.09 15.3288 139.215 15.2385 139.355 15.2384H146.668C146.85 15.2384 146.998 15.387 146.998 15.5694H147V30.6486C147 30.8309 146.852 30.9797 146.67 30.9797H142.492C142.31 30.9796 142.162 30.8309 142.162 30.6486V21.798C142.162 21.4294 141.65 21.3368 141.522 21.6828L138.194 30.7609C138.147 30.8907 138.024 30.9777 137.885 30.9777H133.309C133.171 30.9777 133.049 30.8907 133 30.7609L129.672 21.7169C129.544 21.371 129.032 21.4629 129.032 21.8312V30.6467C129.032 30.829 128.884 30.9777 128.702 30.9777H124.524C124.343 30.9776 124.194 30.8289 124.194 30.6467V15.5694C124.194 15.3871 124.342 15.2385 124.524 15.2384H131.837ZM100.67 15.2384C102.039 15.2384 103.113 15.5769 103.889 16.256C104.666 16.935 105.054 17.8755 105.054 19.0792C105.054 19.7658 104.91 20.4098 104.619 21.0099C104.33 21.6117 103.861 22.1153 103.217 22.5197C103.139 22.5761 103.065 22.6258 103 22.6671C103.275 22.7367 103.54 22.8286 103.79 22.9396C104.54 23.2763 105.103 23.7407 105.478 24.3351C105.853 24.9295 106.041 25.6411 106.041 26.465C106.041 27.2888 105.859 28.088 105.499 28.7727C105.137 29.4593 104.587 29.9976 103.849 30.3889C103.112 30.78 102.191 30.9758 101.085 30.9758H89.7838C89.6246 30.9758 89.4914 30.8618 89.4606 30.7111L89.4537 30.6486V15.5694C89.4537 15.387 89.6019 15.2384 89.7838 15.2384H100.67ZM94.7584 24.6623C94.5768 24.6625 94.4286 24.8112 94.4284 24.9933V27.0607L94.4303 27.0588C94.4303 27.2411 94.5786 27.3896 94.7604 27.3898H99.4655C99.9007 27.3898 100.242 27.2681 100.492 27.0236C100.741 26.7791 100.867 26.446 100.867 26.0265C100.867 25.6486 100.745 25.3269 100.502 25.0617C100.258 24.7965 99.8991 24.6623 99.4245 24.6623H94.7584ZM112.039 19.4581C111.857 19.4584 111.709 19.6069 111.709 19.7892V22.1496L111.716 22.214C111.746 22.3647 111.88 22.4785 112.039 22.4787H116.784C117.284 22.4786 117.672 22.3451 117.948 22.0802C118.224 21.815 118.363 21.4438 118.363 20.9679C118.363 20.4921 118.224 20.1044 117.948 19.8449C117.672 19.5856 117.284 19.4582 116.784 19.4581H112.039ZM94.7604 18.8273C94.5787 18.8275 94.4304 18.9761 94.4303 19.1583V20.8048C94.4305 20.987 94.5787 21.1357 94.7604 21.1359H98.6755C99.0168 21.1359 99.3041 21.0246 99.5348 20.799C99.7655 20.5752 99.8805 20.2893 99.8805 19.9396C99.8805 19.6179 99.7752 19.3524 99.5651 19.1417C99.355 18.931 99.0582 18.8273 98.6755 18.8273H94.7604Z" fill="url(#paint0_linear_433_920)"/>
<defs>
<linearGradient id="paint0_linear_433_920" x1="147" y1="11.9304" x2="110.472" y2="63.2212" gradientUnits="userSpaceOnUse">
<stop offset="0.225954" stop-color="#9396FF"/>
<stop offset="0.735582" stop-color="#6E3AFF"/>
</linearGradient>
</defs>
</svg>

<svg xmlns="http://www.w3.org/2000/svg" width="147" height="38" fill="none" viewBox="0 0 147 38"><path fill="#16183b" d="M10.003 22.947c0 4.359 3.531 7.893 7.887 7.893l-2.998 5.676c-.228.43-.674.7-1.16.7H1.311A1.313 1.313 0 0 1 0 35.902v-7.836c0-.39.173-.759.471-1.009l9.532-7.963zm24.378 3.133a2.19 2.19 0 0 1 .784 1.679v.891c0 1.21-.98 2.19-2.188 2.19H17.89l6.802-12.877zM18.033 12.385l-8.03 6.709V7.534a.875.875 0 0 1 1.437-.672zm6.659 5.578-6.66-5.578L32.669.158c.552-.462 1.337.174 1 .811z"/><path fill="#16183b" d="M10.003 22.947c0 4.359 3.531 7.893 7.887 7.893l-2.998 5.676c-.228.43-.674.7-1.16.7H1.311A1.313 1.313 0 0 1 0 35.902v-7.836c0-.39.173-.759.471-1.009l9.532-7.963zm24.378 3.133a2.19 2.19 0 0 1 .784 1.679v.891c0 1.21-.98 2.19-2.188 2.19H17.89l6.802-12.877zM18.033 12.385l-8.03 6.709V7.534a.875.875 0 0 1 1.437-.672zm6.659 5.578-6.66-5.578L32.669.158c.552-.462 1.337.174 1 .811zM49.343 23.76q0 .86.287 1.48.288.619.878.956.594.336 1.52.336h1.955q.893-.012 1.461-.325a1.94 1.94 0 0 0 .869-.956q.275-.629.275-1.49V15.57c0-.183.149-.332.33-.332h4.435c.182 0 .33.149.33.332v8.483q0 2.205-.968 3.841t-2.714 2.551q-1.712.894-4.005.913h-1.968q-2.33 0-4.078-.913-1.747-.913-2.726-2.55-.975-1.639-.976-3.842V15.57c0-.182.149-.33.33-.33h4.435c.182 0 .33.148.33.33zM63.559 30.648V15.57c0-.183.148-.332.33-.332h6.06c.114 0 .22.06.28.158l5.058 8.34c.173.285.612.161.612-.172V15.57c0-.183.148-.332.33-.332h4.277c.182 0 .33.149.33.332v15.078a.33.33 0 0 1-.33.331h-5.862a.33.33 0 0 1-.281-.16l-5.255-8.673c-.172-.286-.612-.164-.612.17v8.33a.33.33 0 0 1-.33.331H63.89a.33.33 0 0 1-.33-.33zM83.018 15.238h4.435c.182 0 .33.149.33.332v15.078a.33.33 0 0 1-.33.331h-4.435a.33.33 0 0 1-.33-.33v-15.08c0-.182.148-.33.33-.33"/><path fill="url(#a)" d="M117.119 15.238q2.014 0 3.446.704 1.431.702 2.182 1.994.751 1.29.751 3.032T122.747 24q-.75 1.291-2.182 1.994t-3.446.704h-5.08a.33.33 0 0 0-.33.331v3.62a.33.33 0 0 1-.33.33h-4.435a.33.33 0 0 1-.33-.33v-15.08a.33.33 0 0 1 .33-.33zm14.718 0c.14 0 .266.09.311.222l3.145 9.131a.33.33 0 0 0 .624 0l3.128-9.129a.33.33 0 0 1 .31-.224h7.313a.33.33 0 0 1 .33.331H147v15.08a.33.33 0 0 1-.33.33h-4.178a.33.33 0 0 1-.33-.33v-8.851c0-.369-.512-.461-.64-.115l-3.328 9.078a.33.33 0 0 1-.309.217h-4.576a.33.33 0 0 1-.309-.217l-3.328-9.044c-.128-.346-.64-.254-.64.114v8.816a.33.33 0 0 1-.33.33h-4.178a.33.33 0 0 1-.33-.33V15.569c0-.182.148-.33.33-.33zm-31.167 0q2.054 0 3.219 1.018t1.165 2.823q0 1.03-.435 1.93-.435.904-1.402 1.51a4 4 0 0 1-.217.148q.414.106.79.273 1.125.503 1.688 1.395.563.893.563 2.13c0 .824-.182 1.623-.542 2.308q-.543 1.03-1.65 1.616-1.105.587-2.764.587H89.784a.33.33 0 0 1-.323-.265l-.007-.062v-15.08c0-.182.148-.33.33-.33zm-5.912 9.424a.33.33 0 0 0-.33.331v2.068l.002-.002c0 .182.149.33.33.33h4.706q.652.001 1.026-.365.374-.368.375-.998 0-.567-.365-.964-.366-.399-1.078-.4zm17.281-5.204a.33.33 0 0 0-.33.331v2.36l.007.065a.33.33 0 0 0 .323.265h4.745q.75 0 1.164-.399.415-.398.415-1.112c0-.476-.139-.864-.415-1.123q-.414-.389-1.164-.387zm-17.279-.63a.33.33 0 0 0-.33.33v1.647c0 .182.149.33.33.33h3.915q.514.002.86-.336.345-.336.346-.86 0-.482-.316-.797-.315-.316-.89-.315z"/><defs><linearGradient id="a" x1="147" x2="110.472" y1="11.93" y2="63.221" gradientUnits="userSpaceOnUse"><stop offset=".226" stop-color="#9396ff"/><stop offset=".736" stop-color="#6e3aff"/></linearGradient></defs></svg>
